X:8
T:Return from Fingal
Z: id:dc-miscellaneous-8
M:C
L:1/8
K:E Dorian
A|BAGF EFGA|BAGF E3B|ADFA d2A2|B3A BcdA|!
BAGF EFGA|BAGF E3B|ADFA d2A2|F2E2 E3:|!
e|f2e2 e2dc|B2A2 d3A|B3A d3A|B3A Bcde|!
f2e2 e2dc|B2A2 d3B|ADFA d2A2|F2E2 E3:|!

